X:1
T:Dominion -- Reel
R:reel
B:Ryan's Mammoth Collection
N: 295
Z: Contributed by Ray Davies,  ray:davies99.freeserve.co.uk
M:C|
L:1/8
K:C
uG2|\
c2 c2 BcdB | cega gece | f2 (fd) "4"e2 (ec) | dcBA G2 vAB |
c2 c2 BcdB | cega gece | f2 (fd) "4"e2 (ec) | dcBd c2:|
|:uG2|\
c"0"ege cege | defe dcBd | cege cege | dg^fa g2 G2 |
cege cege | f2 (fe) dcBA | GABc defg | ecdB c2:|
